X:1
T:Partition sans titre
C:Compositeur / Arrangeur
L:1/8
M:9/8
I:linebreak $
K:D
V:1 treble nm="Violon" snm="Vln."
V:1
"F#m" F2 A B2 F A2 F |"Em" G2 B d2 e dBA |"F#m" F2 A B2 F A2 F |1"Em" E2 D E2 F GFE :|2 %4
"Em" E2 D E2 F GAB ||"F#m" c3 c2 e d2 c |"Em" B2 G B2 c d2 e |"F#m" f3 f2 e d2 B | A2 G F2 G A2 B | %9
"F#m" c3 c2 e d2 c |"Em" B2 G B2 c d2 e | d2 A B2 F"F#m" A2 F |"Em" E2 D E2 F GFE |] %13
